X:1
T:Title
%%score { ( 1 3 ) | ( 2 4 ) }
L:1/8
Q:1/4=112
M:4/4
K:Eb
V:1 treble nm="Grand Piano"
V:3 treble 
V:2 bass 
V:4 bass 
V:1
 [GB]2 [EG]>[FA] [GB]2 [GB]2 | [Ge]2 [Ac]2 [GB]2 [B,EG]2 | [B,A]2- [B,FA]2 [B,A]2- [B,EA]2 | %3
w: J.~P.~Scholfield * * * *|||
 [B,FA]6 z2 | [B,FA]2 [B,DF]>[B,EG] [DFA]2 [EGB]2 | [FBd]2 [EAc]2 [DGB]2 [B,FA]2 | [B,EG]4 [GB]4 | %7
w: ||||
 [GB]6 z2 | [GB]2 [EG]>[FA] [GB]2 [GB]2 | [Ae]2 [Ac]2 [GB]2 [B,EG]2 | [A,EA]4 [EB]4 | [Ec]6 z2 | %12
w: |||||
 e2 c>d e2 c2 | B2 G2 E2 A2 | z4 [DF]4 | E6 (3B=A_A | G2 G>[FA] [GB]2 [Ec]2 | [Dc] [B,D]3 [B,D]4 | %18
w: ||||||
 [FA]2 [FA]>[GB] [DAc]2 [Ad]2 | [Gd] G3 G4 | e2 c>d e2 c2 | [GB]2 [EG]2 [GB]2 G2 | F =A2 B c2 _d2 | %23
w: |||||
 [Fd]6 (3cAF | G2 G>[FA] [GB]2 [Ec]2 | [Dc] [B,D]3 [B,D]4 | [FA]2 [FA]>[GB] [DAc]2 [Ad]2 | %27
w: ||||
 [Gd] G3 G4 | e2 [Ad]>[Ge] [Af]2 [Ge]2 | e2 c2 A2 F2 | G B3 [DAc]2 [Ad]2 | [Ge]6 z2 |] %32
w: |||||
V:2
 [E,B,]2 [E,B,]>[E,B,] [E,E]2 [E,E]2 | [E,B,]2 [E,E]2 [E,E]2 E,2 | F,2 D,2 B,,2 C,2 | D,6 z2 | %4
 B,,2 B,,>B,, B,,2 B,,2 | B,,2 B,,2 B,,2 D,2 | E,4 [E,E]4 | [E,E]6 z2 | %8
 [E,E]2 [E,B,]>[E,B,] [E,E]2 [E,E]2 | [E,C]2 [E,E]2 [E,E]2 E,_D, | C,4 [B,,G,]4 | [A,,A,]6 z2 | %12
 [A,CE]2 [A,E]>[A,B,E] [A,CE]2 [A,E]2 | [E,G,E]2 [E,B,E]2 [G,B,]2 [A,CE]2 | [B,E]4 B,2 z2 | %15
 [E,G,]6 z2 | [E,B,E]2 [E,B,E]>[E,B,] [E,B,]2 [E,A,]2 | [B,,A,] [B,,A,]3 [B,,F,]4 | %18
 [B,,B,]2 [B,,B,]>[B,,B,] B,,2 [B,,B,]2 | [E,B,] [E,B,E]3 [E,B,E]4 | %20
 [A,CE]2 [A,E]>[A,B,E] [A,CE]2 [A,EA]2 | [E,E]2 [E,B,]2 [E,E]2 [E,B,E]2 | %22
 [F,=A,E] [F,CE]2 [F,B,D] [F,A,E]2 [F,A,F]2 | [B,,B,]6 z2 | %24
 [E,B,E]2 [E,B,E]>[E,B,] [E,B,]2 [E,A,]2 | [B,,A,] [B,,A,]3 [B,,F,]4 | %26
 [B,,B,]2 [B,,B,]>[B,,B,] B,,2 [B,,B,]2 | [E,B,] [E,B,E]3 [E,B,E]4 | %28
 [G,B,E]2 [F,B,]>[D,B,] [D,B,]2 [E,B,]2 | [A,CA]2 [A,EA]2[K:bass] [F,CE]2 [A,CE]2 | %30
 [B,E] [B,EG]3[K:bass] B,,2 [B,,B,]2 | [E,B,]6 z2 |] %32
V:3
 x8 | x8 | D2 z2 D2 z2 | x8 | x8 | x8 | x8 | x8 | x8 | x8 | x8 | x8 | x8 | x8 | G4 z2 A,2 | x8 | %16
 x8 | x8 | x8 | x8 | x8 | x8 | x8 | x8 | x8 | x8 | x8 | x8 | x8 | x8 | x8 | x8 |] %32
V:4
 x8 | x8 | x8 | x8 | x8 | x8 | x8 | x8 | x8 | x8 | x8 | x8 | x8 | x8 | z4 B,,4 | x8 | x8 | x8 | %18
 x8 | x8 | x8 | x8 | x8 | x8 | x8 | x8 | x8 | x8 | x8 | x4[K:bass] x4 | x4[K:bass] x4 | x8 |] %32

